X: 111
T: Jigs 12 - Fair Jenny's Jig
T:Lady Comptons Whim. JC.240
M:6/8
K:G
"G"G2G BAG|"D"F2GA2c|"C"B2B dcB|"D"ABG FED|!
"G"G2G BAG|"D"F2FA2c|"C"BcB "D"AGF|"Em"E3z3:|!
|:"Em"g2ee2g|"Bm"f2d dcd|"C"e2cc2e|"G"d2B BAG|!
"Am"c2AA2c|"Em"B2GG2B|"C"E2"D"AG2F|"G"G3G3:|
T:Fair Jenny's Jig
K:D
e|:"D"f3 fgf|"A"ecA ecA|"G"Bcd ""em"ecA|"G"Bcd "A"efg|
"D"f3 fgf|"A"ecA ecA|"G"Bcd ecA|"A"ABc "D"d3:|
|:"G"B3 B=cB|GBB B=cB|"D"ADD dDD|cDD =cDD|
"G"B3 B=cB|GBB B=cB|"A"AEA ABc|"D"dAF D3:|
%%newpage

